src/icons/time.svg

<svg width="19" height="21" viewBox="0 0 19 21" fill="none" xmlns="http://www.w3.org/2000/svg">
<path d="M15.75 5.90625C16.5573 6.73958 17.1693 7.67708 17.5859 8.71875C18.0286 9.73438 18.25 10.8281 18.25 12C18.25 13.1979 18.0156 14.3307 17.5469 15.3984C17.1042 16.4661 16.4792 17.4036 15.6719 18.2109C14.8906 18.9922 13.9661 19.6042 12.8984 20.0469C11.8307 20.5156 10.6979 20.75 9.5 20.75C8.30208 20.75 7.16927 20.5156 6.10156 20.0469C5.03385 19.6042 4.09635 18.9922 3.28906 18.2109C2.50781 17.4036 1.88281 16.4661 1.41406 15.3984C0.971354 14.3307 0.75 13.1979 0.75 12C0.75 10.8021 0.971354 9.66927 1.41406 8.60156C1.88281 7.53385 2.50781 6.60938 3.28906 5.82812C4.09635 5.02083 5.03385 4.39583 6.10156 3.95312C7.16927 3.48438 8.30208 3.25 9.5 3.25C11.2448 3.25 12.8073 3.70573 14.1875 4.61719L15.2812 3.52344C15.4635 3.34115 15.6979 3.25 15.9844 3.25C16.2708 3.25 16.5052 3.35417 16.6875 3.5625C16.8958 3.74479 17 3.97917 17 4.26562C17 4.55208 16.9089 4.78646 16.7266 4.96875L15.75 5.90625ZM9.5 18.7578C10.4375 18.7578 11.3099 18.5885 12.1172 18.25C12.9505 17.8854 13.6667 17.4036 14.2656 16.8047C14.8906 16.1797 15.3724 15.4635 15.7109 14.6562C16.0755 13.8229 16.2578 12.9375 16.2578 12C16.2578 11.0625 16.0755 10.1901 15.7109 9.38281C15.3724 8.54948 14.8906 7.83333 14.2656 7.23438C13.6667 6.60938 12.9505 6.1276 12.1172 5.78906C11.3099 5.42448 10.4375 5.24219 9.5 5.24219C8.5625 5.24219 7.67708 5.42448 6.84375 5.78906C6.03646 6.1276 5.32031 6.60938 4.69531 7.23438C4.09635 7.83333 3.61458 8.54948 3.25 9.38281C2.91146 10.1901 2.74219 11.0625 2.74219 12C2.74219 12.9375 2.91146 13.8229 3.25 14.6562C3.61458 15.4635 4.09635 16.1797 4.69531 16.8047C5.32031 17.4036 6.03646 17.8854 6.84375 18.25C7.67708 18.5885 8.5625 18.7578 9.5 18.7578ZM12.9375 11.4141C13.224 11.4141 13.4583 11.5052 13.6406 11.6875C13.849 11.8698 13.9531 12.1042 13.9531 12.3906C13.9531 12.6771 13.849 12.9245 13.6406 13.1328C13.4583 13.3151 13.224 13.4062 12.9375 13.4062H9.73438C9.44792 13.4062 9.21354 13.3151 9.03125 13.1328C8.84896 12.9245 8.75781 12.6771 8.75781 12.3906V8.01562C8.75781 7.72917 8.84896 7.49479 9.03125 7.3125C9.21354 7.10417 9.44792 7 9.73438 7C10.0208 7 10.2552 7.10417 10.4375 7.3125C10.6458 7.49479 10.75 7.72917 10.75 8.01562V11.4141H12.9375ZM6.76562 2.74219C6.47917 2.74219 6.23177 2.65104 6.02344 2.46875C5.84115 2.28646 5.75 2.05208 5.75 1.76562C5.75 1.47917 5.84115 1.24479 6.02344 1.0625C6.23177 0.854167 6.47917 0.75 6.76562 0.75H12.2344C12.5208 0.75 12.7552 0.854167 12.9375 1.0625C13.1458 1.24479 13.25 1.47917 13.25 1.76562C13.25 2.05208 13.1458 2.28646 12.9375 2.46875C12.7552 2.65104 12.5208 2.74219 12.2344 2.74219H6.76562Z"/>
</svg>

<svg width="19" height="21"><path d="M15.75 5.906a8.608 8.608 0 0 1 1.836 2.813A8.121 8.121 0 0 1 18.25 12c0 1.198-.234 2.33-.703 3.398a8.589 8.589 0 0 1-1.875 2.813 8.454 8.454 0 0 1-2.774 1.836 8.362 8.362 0 0 1-3.398.703 8.362 8.362 0 0 1-3.398-.703 8.909 8.909 0 0 1-2.813-1.836 9.491 9.491 0 0 1-1.875-2.813A8.784 8.784 0 0 1 .75 12c0-1.198.221-2.33.664-3.398A8.986 8.986 0 0 1 3.29 5.828a8.589 8.589 0 0 1 2.813-1.875A8.361 8.361 0 0 1 9.5 3.25c1.745 0 3.307.456 4.688 1.367l1.093-1.094a.952.952 0 0 1 .703-.273c.287 0 .521.104.704.313a.892.892 0 0 1 .312.703c0 .286-.091.52-.273.703l-.977.937ZM9.5 18.758a6.7 6.7 0 0 0 2.617-.508 6.93 6.93 0 0 0 2.149-1.445 6.647 6.647 0 0 0 1.445-2.149A6.554 6.554 0 0 0 16.258 12c0-.938-.182-1.81-.547-2.617a6.133 6.133 0 0 0-1.445-2.149 6.133 6.133 0 0 0-2.149-1.445A6.284 6.284 0 0 0 9.5 5.242c-.938 0-1.823.182-2.656.547a6.648 6.648 0 0 0-2.149 1.445A6.929 6.929 0 0 0 3.25 9.383 6.699 6.699 0 0 0 2.742 12c0 .938.17 1.823.508 2.656a7.6 7.6 0 0 0 1.445 2.149 7.602 7.602 0 0 0 2.149 1.445 6.99 6.99 0 0 0 2.656.508Zm3.438-7.344c.286 0 .52.091.703.274a.892.892 0 0 1 .312.703c0 .286-.104.534-.312.742a.952.952 0 0 1-.704.273H9.735a.952.952 0 0 1-.703-.273 1.09 1.09 0 0 1-.273-.742V8.016c0-.287.091-.521.273-.704A.892.892 0 0 1 9.734 7c.287 0 .521.104.704.313a.892.892 0 0 1 .312.703v3.398h2.188ZM6.766 2.742a1.09 1.09 0 0 1-.743-.273.952.952 0 0 1-.273-.703c0-.287.091-.521.273-.704.209-.208.456-.312.743-.312h5.468c.287 0 .521.104.704.313a.892.892 0 0 1 .312.703c0 .286-.104.52-.313.703a.952.952 0 0 1-.703.273H6.766Z"/></svg>
